src/img/svg/logo-bank/23.svg

<svg width="140" height="32" viewBox="0 0 140 32" fill="none" xmlns="http://www.w3.org/2000/svg">
<g clip-path="url(#clip0_34_3434)">
<mask id="mask0_34_3434" style="mask-type:luminance" maskUnits="userSpaceOnUse" x="0" y="0" width="140" height="32">
<path d="M139.63 0.000732422H0V31.8132H139.63V0.000732422Z" fill="white"/>
</mask>
<g mask="url(#mask0_34_3434)">
<path d="M45.3933 9.29894C45.4198 8.79609 45.5433 8.44027 45.7609 8.22265C45.9756 8.00797 46.2991 7.89917 46.7314 7.89917H53.5831C54.4742 7.89917 54.9211 8.36675 54.9211 9.29894V22.1704C54.9211 22.3233 54.8947 22.4232 54.8388 22.4644C54.783 22.5056 54.6771 22.5262 54.5242 22.5262H52.7479C52.6098 22.5262 52.5098 22.5056 52.4451 22.4644C52.3834 22.4232 52.351 22.3233 52.351 22.1704V10.1341H47.7341L47.6076 11.9544C47.4959 13.513 47.3841 14.9069 47.2665 16.1331C47.1489 17.3594 46.946 18.4239 46.6548 19.3297C46.3667 20.2383 45.9432 20.9823 45.3904 21.5646C44.8375 22.1498 44.07 22.5909 43.0966 22.885C42.9584 22.9115 42.8437 22.9085 42.7526 22.8732C42.6643 22.8379 42.5908 22.7438 42.535 22.5909L42.0939 21.3557C42.0674 21.2293 42.0615 21.1264 42.0851 21.0441C42.1056 20.9588 42.1909 20.8824 42.3468 20.8147C42.9291 20.5618 43.3878 20.2412 43.7142 19.8502C44.0406 19.462 44.2965 18.9385 44.4758 18.2857C44.6581 17.63 44.7934 16.8094 44.8846 15.8302C44.9757 14.848 45.0758 13.6335 45.1875 12.1838L45.3933 9.29894Z" fill="#0039A6"/>
<path d="M67.1179 16.9907C67.1179 18.8433 66.6887 20.2667 65.8328 21.2636C64.9742 22.2575 63.698 22.7574 61.9983 22.7574C60.3132 22.7574 59.0576 22.2722 58.2253 21.3047C57.3961 20.3373 56.9844 18.9198 56.9844 17.0525C56.9844 16.135 57.1079 15.3175 57.3608 14.6088C57.6108 13.9 57.9607 13.3001 58.4047 12.812C58.8517 12.3239 59.3811 11.9534 60.0045 11.6946C60.622 11.4387 61.3101 11.3093 62.0629 11.3093C63.7185 11.3093 64.9771 11.8151 65.8358 12.8237C66.6916 13.8325 67.1179 15.2233 67.1179 16.9907ZM64.6331 17.0525C64.6331 16.5496 64.5978 16.0703 64.5184 15.6233C64.442 15.1734 64.3096 14.7793 64.1214 14.4353C63.9332 14.0912 63.6774 13.8236 63.348 13.6266C63.0216 13.4296 62.607 13.3325 62.1041 13.3325C61.66 13.3325 61.269 13.4267 60.9337 13.6148C60.6014 13.803 60.322 14.0589 60.0985 14.3823C59.8751 14.7058 59.7134 15.0881 59.6075 15.5381C59.5045 15.985 59.4517 16.4673 59.4517 16.9849C59.4517 18.1494 59.6398 19.0639 60.0133 19.7256C60.3897 20.3931 61.0572 20.7254 62.0188 20.7254C62.5069 20.7254 62.9187 20.6255 63.251 20.4196C63.5863 20.2197 63.8538 19.949 64.0567 19.6109C64.2567 19.2756 64.4037 18.8875 64.4949 18.4464C64.5861 18.0082 64.6331 17.5436 64.6331 17.0525Z" fill="#0039A6"/>
<path d="M90.0047 16.9907C90.0047 18.8433 89.5784 20.2667 88.7197 21.2636C87.8639 22.2575 86.5847 22.7574 84.885 22.7574C83.1999 22.7574 81.9413 22.2722 81.1121 21.3047C80.2857 20.3373 79.8711 18.9198 79.8711 17.0525C79.8711 16.135 79.9975 15.3175 80.2475 14.6088C80.4975 13.9 80.8474 13.3001 81.2914 12.812C81.7355 12.3239 82.2707 11.9534 82.8912 11.6946C83.5117 11.4387 84.1998 11.3093 84.9497 11.3093C86.6082 11.3093 87.8639 11.8151 88.7226 12.8237C89.5784 13.8325 90.0047 15.2233 90.0047 16.9907ZM87.5228 17.0525C87.5228 16.5496 87.4816 16.0703 87.4081 15.6233C87.3287 15.1734 87.1963 14.7793 87.0111 14.4353C86.8229 14.0912 86.5612 13.8236 86.2377 13.6266C85.9113 13.4296 85.4966 13.3325 84.9968 13.3325C84.5527 13.3325 84.1586 13.4267 83.8263 13.6148C83.494 13.803 83.2147 14.0589 82.9912 14.3823C82.7676 14.7058 82.6001 15.0881 82.4971 15.5381C82.3942 15.985 82.3413 16.4673 82.3413 16.9849C82.3413 18.1494 82.5295 19.0639 82.9029 19.7256C83.2823 20.3931 83.9469 20.7254 84.9085 20.7254C85.3967 20.7254 85.8084 20.6255 86.1436 20.4196C86.4759 20.2197 86.7435 19.949 86.9494 19.6109C87.1493 19.2756 87.2964 18.8875 87.3845 18.4464C87.4757 18.0082 87.5228 17.5436 87.5228 17.0525Z" fill="#0039A6"/>
<path d="M93.6148 22.5262C93.1678 22.5262 92.8619 22.4351 92.6943 22.2527C92.5267 22.0733 92.4414 21.7734 92.4414 21.3557V9.31953C92.4414 8.37262 92.8855 7.89917 93.7794 7.89917H101.657C101.81 7.89917 101.907 7.93152 101.949 7.99327C101.993 8.05503 102.01 8.16384 102.01 8.31675V9.73708C102.01 9.87535 101.993 9.97232 101.949 10.0283C101.907 10.0841 101.81 10.1106 101.657 10.1106H95.0116V13.3483H98.4408C99.234 13.3483 99.9079 13.4277 100.464 13.5894C101.022 13.7482 101.49 13.9629 101.875 14.2275C102.257 14.4923 102.563 14.7893 102.796 15.1156C103.025 15.442 103.202 15.7802 103.319 16.1302C103.436 16.4771 103.513 16.8124 103.548 17.1329C103.581 17.4535 103.601 17.7388 103.601 17.9887C103.601 18.6415 103.472 19.2502 103.213 19.806C102.957 20.3619 102.605 20.8441 102.16 21.247C101.716 21.6498 101.193 21.9616 100.593 22.188C99.9962 22.4115 99.3552 22.5203 98.6726 22.5203H93.6148V22.5262ZM100.948 17.8328C100.948 17.1682 100.737 16.6125 100.31 16.1596C99.8847 15.7097 99.2699 15.4832 98.4612 15.4832H95.0116V20.2266H98.4195C98.9198 20.2266 99.331 20.1472 99.6519 19.9854C99.9729 19.8266 100.228 19.6296 100.426 19.3914C100.623 19.1562 100.754 18.8974 100.834 18.6121C100.911 18.3328 100.948 18.0711 100.948 17.8328Z" fill="#0039A6"/>
<path d="M114.635 21.3342C114.635 21.6694 114.502 21.9017 114.237 22.0222C113.929 22.1634 113.599 22.281 113.243 22.3781C112.887 22.4781 112.52 22.5516 112.146 22.6074C111.773 22.6634 111.397 22.7045 111.026 22.7221C110.659 22.7457 110.306 22.7574 109.973 22.7574C109.053 22.7574 108.291 22.6604 107.686 22.4752C107.077 22.287 106.597 22.034 106.241 21.7223C105.885 21.4077 105.639 21.0401 105.5 20.6136C105.36 20.1873 105.289 19.7403 105.289 19.2639C105.289 18.7787 105.371 18.3082 105.531 17.8553C105.689 17.4024 105.953 17.0055 106.312 16.6643C106.674 16.3232 107.148 16.0468 107.724 15.838C108.303 15.6292 109.009 15.5262 109.844 15.5262H112.185V15.1705C112.185 14.9058 112.158 14.6617 112.103 14.4382C112.047 14.2177 111.938 14.0207 111.776 13.853C111.617 13.6854 111.397 13.5589 111.121 13.4678C110.844 13.3766 110.48 13.3325 110.036 13.3325C109.558 13.3325 109.045 13.3737 108.488 13.456C107.929 13.5413 107.477 13.6383 107.129 13.7501C106.977 13.7912 106.865 13.8001 106.795 13.7707C106.724 13.7442 106.677 13.6677 106.65 13.5413L106.36 12.3533C106.303 12.1297 106.365 11.9857 106.545 11.9151C107.129 11.6946 107.77 11.5357 108.468 11.4446C109.165 11.3564 109.82 11.3093 110.432 11.3093C111.882 11.3093 112.943 11.6299 113.616 12.2709C114.296 12.912 114.632 13.8442 114.632 15.0704V21.3342H114.635ZM112.167 17.3877H110.162C109.926 17.3877 109.668 17.4024 109.397 17.4289C109.127 17.4583 108.868 17.5348 108.624 17.6582C108.379 17.7818 108.177 17.9641 108.018 18.2023C107.859 18.4405 107.777 18.7669 107.777 19.1845C107.777 19.7844 107.98 20.202 108.379 20.4372C108.786 20.6754 109.321 20.793 109.988 20.793C110.088 20.793 110.221 20.7901 110.394 20.7813C110.568 20.7725 110.753 20.7577 110.95 20.7283C111.144 20.699 111.349 20.6666 111.565 20.6225C111.779 20.5813 111.979 20.5255 112.161 20.4578V17.3877H112.167Z" fill="#0039A6"/>
<path d="M119.668 22.4536C119.597 22.5007 119.48 22.5271 119.315 22.5271H117.803C117.65 22.5271 117.539 22.4978 117.462 22.4419C117.388 22.3861 117.348 22.2743 117.348 22.1096V11.9554C117.348 11.8025 117.385 11.6966 117.462 11.6407C117.539 11.5849 117.653 11.5554 117.803 11.5554H119.315C119.48 11.5554 119.597 11.5819 119.668 11.6289C119.739 11.676 119.771 11.7848 119.771 11.9524V15.6695H124.39V11.9554C124.39 11.8025 124.429 11.6966 124.506 11.6407C124.578 11.5849 124.694 11.5554 124.85 11.5554H126.372C126.555 11.5554 126.673 11.5819 126.728 11.6289C126.784 11.676 126.813 11.7848 126.813 11.9524V22.1067C126.813 22.289 126.784 22.4037 126.728 22.4507C126.673 22.4978 126.555 22.5242 126.372 22.5242H124.85C124.694 22.5242 124.578 22.4948 124.506 22.439C124.426 22.383 124.39 22.2713 124.39 22.1067V17.6573H119.771V22.1067C119.771 22.2919 119.739 22.4066 119.668 22.4536Z" fill="#0039A6"/>
<path d="M139.573 22.1419L136.033 16.7105L139.223 11.973C139.282 11.9025 139.294 11.8054 139.259 11.7231C139.223 11.6407 139.138 11.5849 139.05 11.5849H136.882C136.815 11.5849 136.753 11.6143 136.709 11.6672L133.906 15.7136H131.93V11.8907C131.93 11.7378 131.904 11.6408 131.848 11.6084C131.792 11.5731 131.695 11.5554 131.554 11.5554H129.881C129.754 11.5554 129.663 11.5731 129.598 11.6084C129.537 11.6408 129.504 11.7348 129.504 11.8907V22.1919C129.504 22.3448 129.537 22.436 129.598 22.4742C129.66 22.5066 129.754 22.5271 129.881 22.5271H131.554C131.695 22.5271 131.792 22.5095 131.848 22.4742C131.904 22.439 131.93 22.3448 131.93 22.1919V17.6162H133.771L136.989 22.4419C137.035 22.4948 137.097 22.5301 137.168 22.5301H139.396C139.487 22.5301 139.57 22.4772 139.609 22.3949C139.644 22.3095 139.632 22.2125 139.573 22.1419Z" fill="#0039A6"/>
<path d="M79.2564 22.1419L75.7129 16.7105L78.9006 11.973C78.9624 11.9025 78.977 11.8054 78.9359 11.7231C78.9006 11.6407 78.8183 11.5849 78.727 11.5849H76.5628C76.4951 11.5849 76.4304 11.6143 76.3892 11.6672L73.5838 15.7136H71.6107V11.8907C71.6107 11.7378 71.5813 11.6408 71.5253 11.6084C71.4695 11.5731 71.3724 11.5554 71.2342 11.5554H69.5639C69.4375 11.5554 69.3434 11.5731 69.2817 11.6084C69.2199 11.6408 69.1875 11.7348 69.1875 11.8907V22.1919C69.1875 22.3448 69.2199 22.436 69.2817 22.4742C69.3434 22.5066 69.4375 22.5271 69.5639 22.5271H71.2342C71.3754 22.5271 71.4724 22.5095 71.5253 22.4742C71.5813 22.439 71.6107 22.3448 71.6107 22.1919V17.6162H73.4515L76.6716 22.4419C76.7157 22.4948 76.7804 22.5301 76.851 22.5301H79.08C79.1682 22.5301 79.2506 22.4772 79.2888 22.3949C79.3211 22.3095 79.3123 22.2125 79.2564 22.1419Z" fill="#0039A6"/>
<path d="M25.2841 31.8132H6.52834C2.92893 31.8132 0 28.8843 0 25.2848V6.52907C0 2.92967 2.92893 0.000732422 6.52834 0.000732422H25.2841C28.8835 0.000732422 31.8095 2.92967 31.8095 6.52907V25.2848C31.8125 28.8843 28.8835 31.8132 25.2841 31.8132ZM6.52834 0.462421C3.18183 0.462421 0.461689 3.18256 0.461689 6.52907V25.2848C0.461689 28.6284 3.18183 31.3485 6.52834 31.3485H25.2841C28.6276 31.3485 31.3478 28.6255 31.3478 25.2848V6.52907C31.3478 3.18256 28.6276 0.462421 25.2841 0.462421H6.52834Z" fill="#0039A6"/>
<path d="M14.2663 4.63323C14.7515 4.35093 15.2808 4.20978 15.8072 4.19214C14.7044 4.22449 13.6458 4.80968 13.0547 5.83598L3.53862 22.3127C2.62994 23.8889 3.17103 25.9004 4.7443 26.809C6.31757 27.7177 8.33195 27.1795 9.23768 25.6063L15.9071 14.0552L13.0635 9.12956C12.1549 7.55334 12.693 5.54191 14.2663 4.63323Z" fill="#00A1DE"/>
<path d="M28.2739 22.3136L18.7607 5.83989C18.1667 4.81359 17.108 4.22839 16.0052 4.19604C16.5287 4.21074 17.0581 4.35484 17.5433 4.63715C19.1165 5.54582 19.6576 7.55726 18.7459 9.13053L15.9023 14.0561L22.5718 25.6072C23.4805 27.1805 25.4919 27.7186 27.0652 26.81C28.6444 25.9013 29.1825 23.8899 28.2739 22.3136Z" fill="#0039A6"/>
<path d="M17.5483 4.63323C17.0631 4.35093 16.5338 4.20978 16.0104 4.19214H15.9898H15.8281H15.8104C15.284 4.20684 14.7576 4.35093 14.2695 4.63323C12.6962 5.54191 12.158 7.55334 13.0667 9.12661L15.9104 14.0523L18.754 9.12661C19.6598 7.55334 19.1216 5.54191 17.5483 4.63323Z" fill="#002C77"/>
<path d="M19.292 23.9792C19.292 25.8524 17.7776 27.3639 15.9072 27.3639C14.0369 27.3639 12.5195 25.8494 12.5195 23.9792C12.5195 22.1118 14.034 20.5945 15.9043 20.5945C17.7746 20.5945 19.292 22.1118 19.292 23.9792Z" fill="#EEAF30"/>
</g>
</g>
<defs>
<clipPath id="clip0_34_3434">
<rect width="139.63" height="31.9985" fill="white" transform="translate(0 0.000732422)"/>
</clipPath>
</defs>
</svg>

<svg width="140" height="32" viewBox="0 0 140 32" fill="none" xmlns="http://www.w3.org/2000/svg"><g clip-path="url(#a)"><mask id="b" style="mask-type:luminance" maskUnits="userSpaceOnUse" x="0" y="0" width="140" height="32"><path d="M139.63 0H0v31.813h139.63V.001Z" fill="#fff"/></mask><g mask="url(#b)"><path d="M45.393 9.299c.027-.503.15-.859.368-1.076.215-.215.538-.324.97-.324h6.852c.891 0 1.338.468 1.338 1.4V22.17c0 .153-.026.253-.082.294-.056.042-.162.062-.315.062h-1.776c-.138 0-.238-.02-.303-.062-.062-.04-.094-.14-.094-.294V10.134h-4.617l-.126 1.82a177.349 177.349 0 0 1-.341 4.18c-.118 1.225-.321 2.29-.612 3.196-.288.908-.712 1.652-1.265 2.235-.553.585-1.32 1.026-2.293 1.32a.63.63 0 0 1-.344-.012c-.089-.035-.162-.13-.218-.282l-.441-1.235a.665.665 0 0 1-.009-.312c.02-.085.106-.162.262-.23.582-.252 1.04-.573 1.367-.964.327-.388.583-.912.762-1.564.182-.656.317-1.477.409-2.456.09-.982.19-2.197.303-3.646l.205-2.885Zm21.725 7.691c0 1.853-.43 3.277-1.285 4.274-.859.994-2.135 1.493-3.835 1.493-1.685 0-2.94-.485-3.773-1.452-.829-.968-1.24-2.385-1.24-4.253 0-.917.123-1.734.376-2.443.25-.709.6-1.309 1.044-1.797a4.446 4.446 0 0 1 1.6-1.117 5.335 5.335 0 0 1 2.058-.386c1.655 0 2.914.506 3.773 1.515.856 1.008 1.282 2.4 1.282 4.167Zm-2.485.063c0-.503-.035-.983-.115-1.43a3.767 3.767 0 0 0-.397-1.188 2.087 2.087 0 0 0-.773-.808c-.326-.197-.741-.295-1.244-.295-.444 0-.835.095-1.17.283a2.509 2.509 0 0 0-.835.767 3.359 3.359 0 0 0-.491 1.156c-.103.447-.156.93-.156 1.447 0 1.164.188 2.079.561 2.74.377.668 1.044 1 2.006 1 .488 0 .9-.1 1.232-.305.335-.2.603-.471.806-.81.2-.334.347-.723.438-1.164.091-.438.138-.902.138-1.394Zm25.372-.063c0 1.853-.427 3.277-1.285 4.274-.856.994-2.135 1.493-3.835 1.493-1.685 0-2.944-.485-3.773-1.452-.826-.968-1.24-2.385-1.24-4.253 0-.917.126-1.734.376-2.443.25-.709.6-1.309 1.043-1.797a4.45 4.45 0 0 1 1.6-1.117 5.357 5.357 0 0 1 2.059-.386c1.658 0 2.914.506 3.773 1.515.855 1.008 1.282 2.4 1.282 4.167Zm-2.482.063c0-.503-.041-.983-.115-1.43a3.924 3.924 0 0 0-.397-1.188 2.13 2.13 0 0 0-.773-.808c-.327-.197-.741-.295-1.241-.295-.444 0-.838.095-1.17.283a2.509 2.509 0 0 0-.836.767 3.304 3.304 0 0 0-.494 1.156c-.103.447-.156.93-.156 1.447 0 1.164.189 2.079.562 2.74.38.668 1.044 1 2.005 1 .489 0 .9-.1 1.236-.305.332-.2.6-.471.805-.81.2-.334.347-.723.436-1.164.09-.438.138-.902.138-1.394Zm6.092 5.473c-.447 0-.753-.09-.92-.273-.168-.18-.254-.48-.254-.897V9.32c0-.947.444-1.42 1.338-1.42h7.878c.153 0 .25.032.292.093.044.062.061.17.061.324v1.42c0 .138-.017.235-.061.291-.042.056-.139.083-.292.083h-6.645v3.237h3.429c.793 0 1.467.08 2.023.241a4.784 4.784 0 0 1 1.411.638c.382.265.688.562.921.889.229.326.406.664.523 1.014.117.347.194.682.229 1.003.033.32.053.606.053.856a4.26 4.26 0 0 1-.388 1.817 4.417 4.417 0 0 1-1.053 1.441 4.852 4.852 0 0 1-1.567.941 5.433 5.433 0 0 1-1.92.332h-5.058v.006Zm7.333-4.693c0-.665-.211-1.22-.638-1.673-.425-.45-1.04-.677-1.849-.677h-3.45v4.744h3.409c.5 0 .911-.08 1.232-.242.32-.158.576-.355.774-.594.197-.235.328-.494.408-.779a2.95 2.95 0 0 0 .114-.78Zm13.687 3.501c0 .335-.133.568-.398.688a6.448 6.448 0 0 1-.994.356c-.356.1-.723.174-1.097.23-.373.055-.749.096-1.12.114-.367.024-.72.035-1.053.035-.92 0-1.682-.097-2.287-.282-.609-.188-1.089-.441-1.445-.753a2.488 2.488 0 0 1-.741-1.108 4.285 4.285 0 0 1-.211-1.35c0-.485.082-.956.242-1.409.158-.453.422-.85.781-1.19.362-.342.836-.618 1.412-.827.579-.209 1.285-.312 2.12-.312h2.341v-.355c0-.265-.027-.51-.082-.733a1.288 1.288 0 0 0-.327-.585c-.159-.168-.379-.294-.655-.385-.277-.091-.641-.136-1.085-.136-.478 0-.991.042-1.548.124a9.044 9.044 0 0 0-1.359.294c-.152.041-.264.05-.334.02-.071-.026-.118-.102-.145-.229l-.29-1.188c-.057-.223.005-.367.185-.438a8.572 8.572 0 0 1 1.923-.47 15.722 15.722 0 0 1 1.964-.136c1.45 0 2.511.32 3.184.962.68.641 1.016 1.573 1.016 2.8v6.263h.003Zm-2.468-3.946h-2.005c-.236 0-.494.014-.765.04a2.24 2.24 0 0 0-.773.23 1.576 1.576 0 0 0-.606.544c-.159.238-.241.565-.241.982 0 .6.203 1.018.602 1.253.407.238.942.356 1.609.356a7.895 7.895 0 0 0 .962-.065c.194-.029.399-.061.615-.106.214-.04.414-.096.596-.164v-3.07h.006Zm7.501 5.066c-.071.047-.188.073-.353.073h-1.512c-.153 0-.264-.03-.341-.085-.074-.056-.114-.168-.114-.332V11.955c0-.152.037-.258.114-.314a.577.577 0 0 1 .341-.086h1.512c.165 0 .282.027.353.074.071.047.103.156.103.323v3.717h4.619v-3.714c0-.152.039-.258.116-.314.072-.056.188-.086.344-.086h1.522c.183 0 .301.027.356.074.056.047.085.156.085.323v10.155c0 .182-.029.297-.085.344-.055.047-.173.073-.356.073h-1.522c-.156 0-.272-.03-.344-.085-.08-.056-.116-.168-.116-.332v-4.45h-4.619v4.45c0 .185-.032.3-.103.347Zm19.905-.312-3.54-5.431 3.19-4.738a.242.242 0 0 0 .036-.25.233.233 0 0 0-.209-.138h-2.168a.223.223 0 0 0-.173.082l-2.803 4.047h-1.976V11.89c0-.153-.026-.25-.082-.283-.056-.035-.153-.053-.294-.053h-1.673a.596.596 0 0 0-.283.053c-.061.033-.094.127-.094.283v10.3c0 .154.033.245.094.283a.625.625 0 0 0 .283.053h1.673c.141 0 .238-.018.294-.053.056-.035.082-.13.082-.282v-4.576h1.841l3.218 4.826a.238.238 0 0 0 .179.088h2.228a.236.236 0 0 0 .213-.135.247.247 0 0 0-.036-.253Zm-60.317 0-3.543-5.431 3.188-4.738a.224.224 0 0 0 .035-.25.229.229 0 0 0-.209-.138h-2.164a.22.22 0 0 0-.174.082l-2.805 4.047H71.61V11.89c0-.153-.03-.25-.086-.283-.056-.035-.153-.053-.29-.053h-1.671a.585.585 0 0 0-.282.053c-.062.033-.094.127-.094.283v10.3c0 .154.032.245.094.283a.622.622 0 0 0 .282.053h1.67c.141 0 .238-.018.291-.053.056-.035.086-.13.086-.282v-4.576h1.84l3.22 4.826a.236.236 0 0 0 .18.088h2.229c.088 0 .17-.053.209-.135a.26.26 0 0 0-.033-.253Zm-53.972 9.671H6.528A6.536 6.536 0 0 1 0 25.285V6.529A6.536 6.536 0 0 1 6.528.001h18.756c3.6 0 6.526 2.929 6.526 6.528v18.756c.003 3.6-2.926 6.528-6.526 6.528ZM6.528.463A6.072 6.072 0 0 0 .462 6.528v18.756a6.071 6.071 0 0 0 6.066 6.064h18.756a6.072 6.072 0 0 0 6.064-6.064V6.529A6.071 6.071 0 0 0 25.284.462H6.528Z" fill="#0039A6"/><path d="M14.266 4.633a3.271 3.271 0 0 1 1.541-.44 3.28 3.28 0 0 0-2.752 1.643L3.539 22.313a3.292 3.292 0 0 0 5.699 3.293l6.67-11.55-2.845-4.926a3.292 3.292 0 0 1 1.203-4.497Z" fill="#00A1DE"/><path d="M28.274 22.314 18.76 5.84a3.288 3.288 0 0 0-2.756-1.644 3.236 3.236 0 0 1 1.538.441 3.286 3.286 0 0 1 1.203 4.494l-2.844 4.925 6.67 11.551a3.289 3.289 0 0 0 4.493 1.203 3.288 3.288 0 0 0 1.209-4.496Z" fill="#0039A6"/><path d="M17.548 4.633a3.27 3.27 0 0 0-1.538-.44h-.2a3.247 3.247 0 0 0-1.54.44 3.289 3.289 0 0 0-1.203 4.494l2.843 4.925 2.844-4.925a3.292 3.292 0 0 0-1.206-4.494Z" fill="#002C77"/><path d="M19.292 23.98a3.386 3.386 0 0 1-6.773 0 3.385 3.385 0 0 1 6.773 0Z" fill="#EEAF30"/></g></g><defs><clipPath id="a"><path fill="#fff" d="M0 0h139.63v31.998H0z"/></clipPath></defs></svg>
